X:1256
T:Little Pot of Shamrocks
T:Valcartier, Quebec Waltz
R:Waltz
M:3/4
L:1/4
S:Lisa Ornstein, Corrigan Family
Z:An unknown musician played it at Cinq a Sept, the French-Canadian jam at Northern Week at
Z:Ashokan in 1998. Eric Favreau identified it several years later as coming from the Irish
Z:community in Valcartier. Finally at Northern Week 2010 Lisa Ornstein identified it by name,
Z:verified its origin, including connections with the Corrigan family.
Z:<http://tunes.nhcountrydance.com>.
K:D
[| DE | "D"F2 F | {FG}FED | A2 B | {AB}AFD | "A7"EFE | "(D"D2"A7)"C | "D"{C}D3- | D2A |
"G"B3 | G2B | "D"{B}d3- | dcB | A2F | F>ED | "A7"{D}(E3 | E2)A |]
[|"G"B3 | G2B | "D"{B}d3- | dcB | A<dD | F>ED | "A7"{D}(E3 | E)DE |
"D"F2 F | {FG}FED | A2 B | {AB}AFD | "A7"EFE | "(D"D2"A7)"C | "D"D3- | D |]

